X:1
T:Fiddler Round the Fairy Tree
D:Liz Carroll and Tommy Maguire, Kiss Me Kate (LP Shanachie 29010) B5a
Z:Yet another J.C.
M:6/8
K:D
A|dec dcA|GFG AFD|FEF GFD|F/G/AB =c2A|
   ded dcA|GFG AFD|F/G/FG A/B/AG|1 F/G/AD D2:|2 F/G/AD DA||
G|FED FGA/B/|=cdB cAG|Afe dcd|ABc d2=c|
   BAB d=cA|GFG AFD|F/G/FG A/B/AG|FAD DFA|
   ded dcA|GFG AFD|F/GFG A/B/AG|FDC D2:|**
